flaticon/interaction/stopwatch-22.svg

<svg xmlns="http://www.w3.org/2000/svg" width="32" height="32" viewBox="0 0 24 24">
    <path d="M20.78125 16.820312C20.625 16.664062 20.371094 16.664062 20.214844 16.820312L18.800781 18.234375 17.386719 16.820312C17.230469 16.664062 16.976562 16.664062 16.820312 16.820312 16.664062 16.976562 16.664062 17.230469 16.820312 17.386719L18.234375 18.800781 16.820312 20.214844C16.664062 20.371094 16.664062 20.625 16.820312 20.78125 16.898438 20.859375 17 20.898438 17.101562 20.898438 17.207031 20.898438 17.308594 20.859375 17.386719 20.78125L18.800781 19.367188 20.214844 20.78125C20.292969 20.859375 20.394531 20.898438 20.496094 20.898438 20.597656 20.898438 20.703125 20.859375 20.78125 20.78125 20.9375 20.625 20.9375 20.371094 20.78125 20.214844L19.367188 18.800781 20.78125 17.386719C20.9375 17.230469 20.9375 16.976562 20.78125 16.820312zM12.398438 10.410156L12.398438 6.351562C12.398438 6.128906 12.222656 5.953125 12 5.953125 11.777344 5.953125 11.601562 6.128906 11.601562 6.351562L11.601562 10.410156C11.023438 10.558594 10.574219 11.015625 10.441406 11.601562L7.601562 11.601562C7.378906 11.601562 7.199219 11.777344 7.199219 12 7.199219 12.222656 7.378906 12.398438 7.601562 12.398438L10.472656 12.398438C10.667969 13.0625 11.273438 13.550781 12 13.550781 12.882812 13.550781 13.601562 12.835938 13.601562 11.953125 13.601562 11.207031 13.089844 10.585938 12.398438 10.410156zM12 12.75C11.558594 12.75 11.199219 12.394531 11.199219 11.953125 11.199219 11.511719 11.558594 11.152344 12 11.152344 12.441406 11.152344 12.800781 11.511719 12.800781 11.953125 12.800781 12.394531 12.441406 12.75 12 12.75zM12 3.953125C12.222656 3.953125 12.398438 3.773438 12.398438 3.550781L12.398438 3.152344C12.398438 2.929688 12.222656 2.75 12 2.75 11.777344 2.75 11.601562 2.929688 11.601562 3.152344L11.601562 3.550781C11.601562 3.773438 11.777344 3.953125 12 3.953125zM12 19.953125C11.777344 19.953125 11.601562 20.128906 11.601562 20.351562L11.601562 20.75C11.601562 20.972656 11.777344 21.152344 12 21.152344 12.222656 21.152344 12.398438 20.972656 12.398438 20.75L12.398438 20.351562C12.398438 20.128906 12.222656 19.953125 12 19.953125zM20.398438 12.351562L20.800781 12.351562C21.019531 12.351562 21.199219 12.171875 21.199219 11.953125 21.199219 11.730469 21.019531 11.550781 20.800781 11.550781L20.398438 11.550781C20.179688 11.550781 20 11.730469 20 11.953125 20 12.171875 20.179688 12.351562 20.398438 12.351562zM3.601562 11.550781L3.199219 11.550781C2.980469 11.550781 2.800781 11.730469 2.800781 11.953125 2.800781 12.171875 2.980469 12.351562 3.199219 12.351562L3.601562 12.351562C3.820312 12.351562 4 12.171875 4 11.953125 4 11.730469 3.820312 11.550781 3.601562 11.550781zM17.941406 6.410156C18.042969 6.410156 18.144531 6.371094 18.222656 6.292969L18.503906 6.011719C18.660156 5.855469 18.660156 5.601562 18.503906 5.445312 18.347656 5.289062 18.097656 5.289062 17.941406 5.445312L17.65625 5.730469C17.5 5.886719 17.5 6.136719 17.65625 6.292969 17.734375 6.371094 17.835938 6.410156 17.941406 6.410156zM5.777344 17.609375L5.496094 17.890625C5.339844 18.046875 5.339844 18.300781 5.496094 18.457031 5.574219 18.535156 5.675781 18.574219 5.777344 18.574219 5.878906 18.574219 5.980469 18.535156 6.058594 18.457031L6.34375 18.175781C6.5 18.019531 6.5 17.765625 6.34375 17.609375 6.1875 17.453125 5.933594 17.453125 5.777344 17.609375zM6.058594 5.445312C5.902344 5.289062 5.652344 5.289062 5.496094 5.445312 5.339844 5.601562 5.339844 5.855469 5.496094 6.011719L5.777344 6.292969C5.855469 6.371094 5.957031 6.410156 6.058594 6.410156 6.164062 6.410156 6.265625 6.371094 6.34375 6.292969 6.5 6.136719 6.5 5.886719 6.34375 5.730469zM6.058594 5.445312"/>
    <path d="M 24 12 C 24 5.382812 18.617188 0 12 0 C 5.382812 0 0 5.382812 0 12 C 0 18.617188 5.382812 24 12 24 C 13.421875 24 14.8125 23.75 16.140625 23.261719 C 16.917969 23.726562 17.828125 24 18.800781 24 C 21.667969 24 24 21.667969 24 18.800781 C 24 17.828125 23.726562 16.917969 23.261719 16.140625 C 23.75 14.8125 24 13.421875 24 12 Z M 15.351562 22.6875 C 14.265625 23.027344 13.144531 23.199219 12 23.199219 C 5.824219 23.199219 0.800781 18.175781 0.800781 12 C 0.800781 5.824219 5.824219 0.800781 12 0.800781 C 18.175781 0.800781 23.199219 5.824219 23.199219 12 C 23.199219 13.144531 23.027344 14.265625 22.6875 15.351562 C 22.65625 15.316406 22.621094 15.285156 22.589844 15.25 C 22.523438 15.179688 22.457031 15.109375 22.386719 15.042969 C 22.324219 14.984375 22.261719 14.925781 22.195312 14.871094 C 22.132812 14.816406 22.066406 14.761719 22 14.710938 C 21.925781 14.652344 21.851562 14.597656 21.777344 14.542969 C 21.710938 14.496094 21.644531 14.453125 21.578125 14.410156 C 21.496094 14.363281 21.417969 14.3125 21.335938 14.265625 C 21.265625 14.226562 21.191406 14.1875 21.117188 14.152344 C 21.035156 14.113281 20.957031 14.070312 20.871094 14.035156 C 20.789062 13.996094 20.707031 13.96875 20.621094 13.9375 C 20.542969 13.90625 20.464844 13.875 20.382812 13.847656 C 20.289062 13.816406 20.1875 13.792969 20.085938 13.769531 C 20.015625 13.75 19.945312 13.726562 19.875 13.714844 C 19.757812 13.6875 19.636719 13.671875 19.511719 13.65625 C 19.457031 13.648438 19.402344 13.636719 19.34375 13.628906 C 19.164062 13.609375 18.984375 13.601562 18.800781 13.601562 C 15.933594 13.601562 13.601562 15.933594 13.601562 18.800781 C 13.601562 18.984375 13.609375 19.164062 13.628906 19.34375 C 13.636719 19.402344 13.648438 19.457031 13.65625 19.515625 C 13.671875 19.636719 13.6875 19.757812 13.714844 19.875 C 13.726562 19.945312 13.75 20.019531 13.769531 20.089844 C 13.792969 20.1875 13.816406 20.289062 13.847656 20.382812 C 13.875 20.464844 13.90625 20.542969 13.9375 20.625 C 13.96875 20.707031 13.996094 20.789062 14.035156 20.871094 C 14.070312 20.957031 14.113281 21.039062 14.152344 21.121094 C 14.191406 21.191406 14.226562 21.265625 14.265625 21.335938 C 14.3125 21.417969 14.363281 21.5 14.414062 21.578125 C 14.457031 21.644531 14.496094 21.710938 14.542969 21.777344 C 14.597656 21.851562 14.652344 21.925781 14.710938 22 C 14.761719 22.066406 14.816406 22.128906 14.871094 22.191406 C 14.925781 22.257812 14.984375 22.324219 15.046875 22.386719 C 15.113281 22.457031 15.179688 22.523438 15.246094 22.585938 C 15.28125 22.621094 15.3125 22.65625 15.351562 22.6875 Z M 18.800781 23.199219 C 17.910156 23.199219 17.082031 22.933594 16.386719 22.476562 C 16.242188 22.378906 16.101562 22.277344 15.972656 22.164062 C 15.945312 22.144531 15.925781 22.121094 15.902344 22.101562 C 15.800781 22.015625 15.707031 21.921875 15.613281 21.828125 C 15.574219 21.785156 15.535156 21.742188 15.5 21.699219 C 15.425781 21.617188 15.359375 21.53125 15.292969 21.445312 C 15.257812 21.398438 15.21875 21.351562 15.1875 21.304688 C 15.105469 21.1875 15.027344 21.066406 14.957031 20.941406 C 14.941406 20.90625 14.921875 20.875 14.90625 20.839844 C 14.839844 20.714844 14.777344 20.585938 14.726562 20.453125 C 14.703125 20.402344 14.6875 20.347656 14.667969 20.296875 C 14.628906 20.191406 14.59375 20.085938 14.5625 19.976562 C 14.546875 19.921875 14.535156 19.863281 14.519531 19.808594 C 14.492188 19.691406 14.472656 19.578125 14.457031 19.460938 C 14.449219 19.410156 14.4375 19.359375 14.429688 19.308594 C 14.414062 19.140625 14.398438 18.972656 14.398438 18.800781 C 14.398438 16.375 16.375 14.398438 18.800781 14.398438 C 18.972656 14.398438 19.140625 14.414062 19.308594 14.433594 C 19.359375 14.4375 19.410156 14.449219 19.460938 14.457031 C 19.578125 14.472656 19.691406 14.496094 19.804688 14.519531 C 19.863281 14.535156 19.921875 14.550781 19.976562 14.566406 C 20.085938 14.59375 20.191406 14.628906 20.296875 14.667969 C 20.347656 14.6875 20.402344 14.703125 20.453125 14.726562 C 20.585938 14.78125 20.714844 14.839844 20.839844 14.90625 C 20.875 14.921875 20.90625 14.941406 20.941406 14.960938 C 21.066406 15.03125 21.1875 15.105469 21.304688 15.1875 C 21.351562 15.21875 21.398438 15.257812 21.445312 15.292969 C 21.53125 15.359375 21.617188 15.425781 21.699219 15.5 C 21.742188 15.539062 21.785156 15.578125 21.828125 15.617188 C 21.921875 15.707031 22.015625 15.800781 22.101562 15.902344 C 22.121094 15.925781 22.144531 15.949219 22.164062 15.972656 C 22.277344 16.105469 22.378906 16.242188 22.476562 16.386719 C 22.933594 17.082031 23.199219 17.910156 23.199219 18.800781 C 23.199219 21.226562 21.226562 23.199219 18.800781 23.199219 Z M 18.800781 23.199219"/>
</svg>

<svg xmlns="http://www.w3.org/2000/svg" width="32" height="32" viewBox="0 0 24 24">
    <path d="M20.781 16.82a.4.4 0 0 0-.566 0L18.8 18.234l-1.414-1.414a.4.4 0 0 0-.567.567l1.414 1.414-1.414 1.414a.4.4 0 0 0 .567.566l1.414-1.414 1.414 1.414c.078.078.18.117.281.117a.4.4 0 0 0 .285-.684l-1.414-1.413 1.414-1.414a.4.4 0 0 0 0-.567zm0 0M12.398 10.41V6.352A.395.395 0 0 0 12 5.953a.395.395 0 0 0-.398.399v4.058a1.594 1.594 0 0 0-1.16 1.192h-2.84a.398.398 0 1 0 0 .796h2.87a1.595 1.595 0 0 0 3.13-.445c0-.746-.512-1.367-1.204-1.543zM12 12.75a.799.799 0 1 1 0-1.598.799.799 0 1 1 0 1.598zm0 0M12 3.953c.223 0 .398-.18.398-.402v-.399a.398.398 0 1 0-.796 0v.399c0 .222.175.402.398.402zm0 0M12 19.953a.395.395 0 0 0-.398.399v.398a.398.398 0 1 0 .796 0v-.398a.395.395 0 0 0-.398-.399zm0 0M20.398 12.352h.403a.4.4 0 0 0 0-.801h-.403a.401.401 0 0 0 0 .8zm0 0M3.602 11.55h-.403a.401.401 0 0 0 0 .802h.403a.4.4 0 0 0 0-.801zm0 0M17.941 6.41c.102 0 .204-.039.282-.117l.28-.281a.4.4 0 0 0 0-.567.396.396 0 0 0-.562 0l-.285.285a.399.399 0 1 0 .285.68zm0 0M5.777 17.61l-.28.28a.4.4 0 0 0 .28.684c.102 0 .203-.039.282-.117l.285-.281a.4.4 0 0 0-.567-.567zm0 0M6.059 5.445a.396.396 0 0 0-.563 0 .4.4 0 0 0 0 .567l.281.281a.399.399 0 1 0 .566-.563zm0 0"/>
    <path d="M24 12c0-6.617-5.383-12-12-12S0 5.383 0 12s5.383 12 12 12c1.422 0 2.813-.25 4.14-.738A5.172 5.172 0 0 0 18.8 24c2.868 0 5.2-2.332 5.2-5.2 0-.972-.273-1.882-.738-2.66.488-1.328.738-2.718.738-4.14zm-8.648 10.688c-1.086.34-2.207.511-3.352.511C5.824 23.2.8 18.176.8 12S5.825.8 12 .8C18.176.8 23.2 5.825 23.2 12c0 1.145-.173 2.266-.512 3.352-.032-.036-.067-.067-.098-.102a5.077 5.077 0 0 0-.203-.207c-.063-.059-.125-.117-.192-.172a8.315 8.315 0 0 0-.418-.328c-.066-.047-.132-.09-.199-.133-.082-.047-.16-.098-.242-.144a3.843 3.843 0 0 0-.219-.114c-.082-.039-.16-.082-.246-.117-.082-.039-.164-.066-.25-.098-.078-.03-.156-.062-.238-.09-.094-.03-.195-.054-.297-.077-.07-.02-.14-.043-.211-.055a3.524 3.524 0 0 0-.363-.059c-.055-.008-.11-.02-.168-.027a5.205 5.205 0 0 0-5.715 5.715c.008.058.02.113.027.172.016.12.031.242.059.359.012.07.035.145.055.215.023.098.046.2.078.293.027.082.058.16.09.242.03.082.058.164.097.246.035.086.078.168.117.25.04.07.075.145.114.215.046.082.097.164.148.242.043.067.082.133.129.2.055.074.11.148.168.222.05.066.105.129.16.191a4.79 4.79 0 0 0 .375.395c.035.035.066.07.106.101zm3.449.511a4.377 4.377 0 0 1-2.828-1.035c-.028-.02-.047-.043-.07-.062-.102-.086-.196-.18-.29-.274-.039-.043-.078-.086-.113-.129-.074-.082-.14-.168-.207-.254-.035-.047-.074-.093-.105-.14a4.385 4.385 0 0 1-.231-.364c-.016-.035-.035-.066-.05-.101a3.475 3.475 0 0 1-.18-.387c-.024-.05-.04-.105-.059-.156a4.388 4.388 0 0 1-.105-.32c-.016-.055-.028-.114-.043-.168a3.608 3.608 0 0 1-.063-.348c-.008-.05-.02-.102-.027-.152a5.451 5.451 0 0 1-.032-.508 4.41 4.41 0 0 1 4.403-4.403c.172 0 .34.016.508.036.05.004.101.015.152.023.117.016.23.04.344.063.058.015.117.03.172.046.109.028.214.063.32.102.05.02.105.035.156.059.133.054.262.113.387.18.035.015.066.034.101.054.125.07.247.144.364.226.047.032.093.07.14.106.086.066.172.133.254.207l.13.117c.093.09.187.184.273.285.02.024.043.047.062.07A4.377 4.377 0 0 1 23.2 18.8a4.403 4.403 0 0 1-4.398 4.4zm0 0"/>
</svg>
